X: 14
T:Fool's Jig (Bampton)
M:2/2
L:1/8
O:England; Oxfordshire; Bampton.
B:Lionel Bacon, A Handbook of Morris Dances
Z:http://www.themorrisring.org/music/handbook-morris-dances
P:A(AB)4A
K:A
P:A
cB|AGAE C2A2|BAGF E2d2|cdec A2A2|BAGF EdcB|
AGAE C2A2|BAGF E2d2|cdec fdBG|A2A2 A2  ||
P:B
c2|dfec A2e2|abaf d2cd|efec A2A2|BAGF EdcB|
AGAF E2A2|BAGF E2d2|cdec fdBG|A2A2 A2  ||

